Newaita-dark/apps/128/kube_icon.svg

<?xml version="1.0" encoding="UTF-8"?>
<svg xmlns="http://www.w3.org/2000/svg" xmlns:xlink="http://www.w3.org/1999/xlink" width="128pt" height="128pt" viewBox="0 0 128 128" version="1.1">
<defs>
<linearGradient id="linear0" gradientUnits="userSpaceOnUse" x1="254" y1="233.5" x2="254" y2="254.666672" gradientTransform="matrix(0.250024,0,0,0.250024,-0.0000152602,53.75514)">
<stop offset="0" style="stop-color:rgb(0%,0%,0%);stop-opacity:0.27451;"/>
<stop offset="1" style="stop-color:rgb(0%,0%,0%);stop-opacity:0;"/>
</linearGradient>
<radialGradient id="radial0" gradientUnits="userSpaceOnUse" cx="450.908936" cy="189.579361" fx="450.908936" fy="189.579361" r="21.166656" gradientTransform="matrix(0.000000696681,-0.31253,-0.562554,-0.000000406154,212.49172,254.38133)">
<stop offset="0" style="stop-color:rgb(0%,0%,0%);stop-opacity:0.313725;"/>
<stop offset="0.222222" style="stop-color:rgb(0%,0%,0%);stop-opacity:0.27451;"/>
<stop offset="1" style="stop-color:rgb(0%,0%,0%);stop-opacity:0;"/>
</radialGradient>
<radialGradient id="radial1" gradientUnits="userSpaceOnUse" cx="450.908936" cy="189.579361" fx="450.908936" fy="189.579361" r="21.166656" gradientTransform="matrix(-0.000000696681,0.31253,0.562554,0.000000406154,-84.818081,-30.109915)">
<stop offset="0" style="stop-color:rgb(0%,0%,0%);stop-opacity:0.313725;"/>
<stop offset="0.222222" style="stop-color:rgb(0%,0%,0%);stop-opacity:0.27451;"/>
<stop offset="1" style="stop-color:rgb(0%,0%,0%);stop-opacity:0;"/>
</radialGradient>
<radialGradient id="radial2" gradientUnits="userSpaceOnUse" cx="450.908936" cy="189.579361" fx="450.908936" fy="189.579361" r="21.166656" gradientTransform="matrix(-0.000000696681,-0.31253,0.562554,-0.000000406154,-84.818081,254.38133)">
<stop offset="0" style="stop-color:rgb(0%,0%,0%);stop-opacity:0.313725;"/>
<stop offset="0.222222" style="stop-color:rgb(0%,0%,0%);stop-opacity:0.27451;"/>
<stop offset="1" style="stop-color:rgb(0%,0%,0%);stop-opacity:0;"/>
</radialGradient>
<radialGradient id="radial3" gradientUnits="userSpaceOnUse" cx="450.908936" cy="189.579361" fx="450.908936" fy="189.579361" r="21.166656" gradientTransform="matrix(0.000000696681,0.31253,-0.562554,0.000000406154,212.491714,-30.109917)">
<stop offset="0" style="stop-color:rgb(0%,0%,0%);stop-opacity:0.313725;"/>
<stop offset="0.222222" style="stop-color:rgb(0%,0%,0%);stop-opacity:0.27451;"/>
<stop offset="1" style="stop-color:rgb(0%,0%,0%);stop-opacity:0;"/>
</radialGradient>
<linearGradient id="linear1" gradientUnits="userSpaceOnUse" x1="254" y1="233.5" x2="254" y2="-168.666672" gradientTransform="matrix(0.250024,0,0,0.250024,0,53.755132)">
<stop offset="0" style="stop-color:rgb(95.686275%,26.27451%,21.176471%);stop-opacity:1;"/>
<stop offset="1" style="stop-color:rgb(93.72549%,32.54902%,31.372549%);stop-opacity:1;"/>
</linearGradient>
<linearGradient id="linear2" gradientUnits="userSpaceOnUse" x1="349.25" y1="191.166672" x2="349.25" y2="-105.166656" gradientTransform="matrix(3.779528,0,0,3.779528,-319.999969,732.598389)">
<stop offset="0" style="stop-color:rgb(87.843137%,87.843137%,87.843137%);stop-opacity:1;"/>
<stop offset="1" style="stop-color:rgb(93.333333%,93.333333%,93.333333%);stop-opacity:1;"/>
</linearGradient>
<linearGradient id="linear3" gradientUnits="userSpaceOnUse" x1="1040" y1="1535.118164" x2="1040" y2="415.118134" gradientTransform="matrix(0.264583,0,0,0.264583,-84.666664,-236.166672)">
<stop offset="0" style="stop-color:rgb(87.843137%,87.843137%,87.843137%);stop-opacity:1;"/>
<stop offset="1" style="stop-color:rgb(93.333333%,93.333333%,93.333333%);stop-opacity:1;"/>
</linearGradient>
</defs>
<g id="surface1">
<path style=" stroke:none;fill-rule:nonzero;fill:url(#linear0);" d="M 20.507812 112.136719 L 107.167969 112.136719 L 107.167969 117.429688 L 20.507812 117.429688 Z M 20.507812 112.136719 "/>
<path style=" stroke:none;fill-rule:nonzero;fill:url(#radial0);" d="M 107.167969 112.136719 L 117.75 112.136719 L 117.75 106.84375 L 107.167969 106.84375 Z M 107.167969 112.136719 "/>
<path style=" stroke:none;fill-rule:nonzero;fill:url(#radial1);" d="M 20.507812 112.136719 L 9.921875 112.136719 L 9.921875 117.429688 L 20.507812 117.429688 Z M 20.507812 112.136719 "/>
<path style=" stroke:none;fill-rule:nonzero;fill:url(#radial2);" d="M 20.507812 112.136719 L 9.921875 112.136719 L 9.921875 106.84375 L 20.507812 106.84375 Z M 20.507812 112.136719 "/>
<path style=" stroke:none;fill-rule:nonzero;fill:url(#radial3);" d="M 107.167969 112.136719 L 117.75 112.136719 L 117.75 117.429688 L 107.167969 117.429688 Z M 107.167969 112.136719 "/>
<path style=" stroke:none;fill-rule:nonzero;fill:url(#linear1);" d="M 14.554688 11.585938 C 14.484375 11.585938 14.417969 11.585938 14.347656 11.589844 C 14.214844 11.597656 14.078125 11.609375 13.949219 11.628906 C 13.75 11.660156 13.558594 11.703125 13.371094 11.761719 C 13.246094 11.800781 13.125 11.84375 13.003906 11.894531 C 12.769531 11.996094 12.542969 12.117188 12.332031 12.261719 C 12.226562 12.332031 12.125 12.40625 12.027344 12.488281 C 11.929688 12.570312 11.835938 12.65625 11.746094 12.746094 C 11.65625 12.835938 11.570312 12.929688 11.488281 13.027344 C 11.449219 13.074219 11.410156 13.125 11.371094 13.175781 C 11.292969 13.277344 11.222656 13.382812 11.15625 13.492188 C 11.058594 13.65625 10.96875 13.828125 10.894531 14.003906 C 10.871094 14.066406 10.847656 14.125 10.824219 14.1875 C 10.800781 14.246094 10.78125 14.308594 10.761719 14.371094 C 10.742188 14.433594 10.726562 14.496094 10.707031 14.558594 C 10.675781 14.6875 10.648438 14.816406 10.628906 14.949219 C 10.621094 15.011719 10.613281 15.078125 10.605469 15.148438 C 10.589844 15.28125 10.585938 15.417969 10.585938 15.554688 L 10.585938 108.167969 C 10.585938 110.367188 12.355469 112.136719 14.554688 112.136719 L 112.457031 112.136719 C 114.65625 112.136719 116.429688 110.367188 116.429688 108.167969 L 116.429688 15.554688 C 116.429688 14.730469 116.179688 13.964844 115.75 13.332031 C 115.679688 13.226562 115.605469 13.125 115.523438 13.027344 C 115.441406 12.929688 115.359375 12.835938 115.269531 12.746094 C 115.179688 12.65625 115.085938 12.570312 114.984375 12.488281 C 114.886719 12.40625 114.785156 12.332031 114.679688 12.261719 C 114.46875 12.117188 114.242188 11.996094 114.007812 11.894531 C 113.886719 11.84375 113.765625 11.800781 113.640625 11.761719 C 113.453125 11.703125 113.261719 11.660156 113.066406 11.628906 C 112.933594 11.609375 112.800781 11.597656 112.664062 11.589844 C 112.59375 11.585938 112.527344 11.585938 112.457031 11.585938 Z M 14.554688 11.585938 "/>
<path style=" stroke:none;fill-rule:nonzero;fill:rgb(100%,100%,100%);fill-opacity:0.392157;" d="M 14.554688 11.585938 C 12.355469 11.585938 10.585938 13.355469 10.585938 15.554688 L 10.585938 16.214844 C 10.585938 14.015625 12.355469 12.246094 14.554688 12.246094 L 112.457031 12.246094 C 114.65625 12.246094 116.429688 14.015625 116.429688 16.214844 L 116.429688 15.554688 C 116.429688 13.355469 114.65625 11.585938 112.457031 11.585938 Z M 14.554688 11.585938 "/>
<path style=" stroke:none;fill-rule:nonzero;fill:rgb(1.176471%,1.176471%,1.176471%);fill-opacity:0.235294;" d="M 14.554688 112.132812 C 12.355469 112.132812 10.585938 110.363281 10.585938 108.164062 L 10.585938 107.503906 C 10.585938 109.703125 12.355469 111.472656 14.554688 111.472656 L 112.457031 111.472656 C 114.65625 111.472656 116.429688 109.703125 116.429688 107.503906 L 116.429688 108.164062 C 116.429688 110.363281 114.65625 112.132812 112.457031 112.132812 Z M 14.554688 112.132812 "/>
<path style=" stroke:none;fill-rule:nonzero;fill:rgb(12.941177%,12.941177%,12.941177%);fill-opacity:1;" d="M 14.554688 11.210938 C 12.152344 11.210938 10.210938 13.152344 10.210938 15.554688 L 10.210938 108.167969 C 10.210938 110.566406 12.152344 112.511719 14.554688 112.511719 L 112.457031 112.511719 C 114.859375 112.511719 116.800781 110.566406 116.800781 108.167969 L 116.800781 15.554688 C 116.800781 13.152344 114.859375 11.210938 112.457031 11.210938 Z M 14.554688 11.960938 L 112.457031 11.960938 C 114.457031 11.960938 116.050781 13.554688 116.050781 15.554688 L 116.050781 108.167969 C 116.050781 110.164062 114.457031 111.761719 112.457031 111.761719 L 14.554688 111.761719 C 12.554688 111.761719 10.960938 110.164062 10.960938 108.167969 L 10.960938 15.554688 C 10.960938 13.554688 12.554688 11.960938 14.554688 11.960938 Z M 14.554688 11.960938 "/>
<path style="fill-rule:nonzero;fill:url(#linear2);stroke-width:11.338583;stroke-linecap:round;stroke-linejoin:round;stroke:rgb(25.882354%,25.882354%,25.882354%);stroke-opacity:1;stroke-miterlimit:4;" d="M 600.001789 335.105812 C 577.858233 335.105812 560.02529 352.938756 560.02529 375.141361 L 560.02529 1415.120843 C 560.02529 1437.264398 577.858233 1455.097342 600.001789 1455.097342 L 680.013838 1455.097342 C 702.157394 1455.097342 719.990337 1437.264398 719.990337 1415.120843 L 719.990337 1152.586844 L 1009.450899 1441.988357 C 1025.099012 1457.63647 1050.313141 1457.63647 1066.020303 1441.988357 L 1122.589707 1385.418953 C 1136.348237 1371.601374 1138.001622 1350.343561 1127.431765 1334.813547 L 927.785465 1135.108198 C 926.309228 1133.986258 924.892041 1132.746218 923.533903 1131.44713 L 866.964499 1074.877726 C 859.051868 1066.965095 855.154602 1056.631436 855.213652 1046.297776 C 855.154602 1035.964117 859.051868 1025.630458 866.964499 1017.717827 L 923.533903 961.148423 C 924.892041 959.790285 926.309228 958.550246 927.785465 957.428306 L 1127.431765 757.782006 C 1138.001622 742.192943 1136.348237 720.994179 1122.589707 707.1766 L 1066.020303 650.607196 C 1058.166722 642.753615 1047.951162 638.856349 1037.735601 638.856349 C 1027.460992 638.856349 1017.245431 642.753615 1009.450899 650.607196 L 719.990337 940.008708 L 719.990337 375.141361 C 719.990337 352.938756 702.157394 335.105812 680.013838 335.105812 Z M 600.001789 335.105812 " transform="matrix(0.0661521,0,0,0.0661521,0,0)"/>
<path style="fill-rule:nonzero;fill:url(#linear3);stroke-width:3;stroke-linecap:round;stroke-linejoin:round;stroke:rgb(25.882354%,25.882354%,25.882354%);stroke-opacity:1;stroke-miterlimit:4;" d="M 351.294578 -45.969267 C 348.591711 -45.969267 345.873221 -44.938115 343.810918 -42.860189 L 262.615546 38.319559 C 262.224959 38.616406 261.849995 38.9445 261.490654 39.30384 L 246.523333 54.271161 C 244.429783 56.364711 243.398632 59.098825 243.414255 61.832939 C 243.398632 64.567053 244.429783 67.301167 246.523333 69.394717 L 261.490654 84.362037 C 261.849995 84.705755 262.224959 85.033848 262.615546 85.330695 L 343.810918 166.526066 C 347.951147 170.666296 354.622385 170.666296 358.778238 166.526066 L 373.745559 151.558745 C 377.885789 147.418516 377.885789 140.731654 373.745559 136.591425 L 321.95363 84.799496 C 321.781771 84.658884 321.625536 84.518272 321.469301 84.362037 L 306.501981 69.394717 C 304.40843 67.301167 303.377279 64.567053 303.392902 61.832939 C 303.377279 59.098825 304.40843 56.364711 306.501981 54.271161 L 321.469301 39.30384 C 321.625536 39.147605 321.781771 39.006994 321.95363 38.866382 L 373.745559 -12.925547 C 377.885789 -17.0814 377.885789 -23.752638 373.745559 -27.892868 L 358.778238 -42.860189 C 356.700312 -44.938115 353.997445 -45.969267 351.294578 -45.969267 Z M 351.294578 -45.969267 " transform="matrix(0.250024,0,0,0.250024,0,53.755133)"/>
</g>
</svg>

<svg xmlns="http://www.w3.org/2000/svg" width="128pt" height="128pt" viewBox="0 0 128 128"><defs><linearGradient id="a" gradientUnits="userSpaceOnUse" x1="254" y1="233.5" x2="254" y2="254.667" gradientTransform="matrix(.25002 0 0 .25002 0 53.755)"><stop offset="0" stop-opacity=".275"/><stop offset="1" stop-opacity="0"/></linearGradient><radialGradient id="b" gradientUnits="userSpaceOnUse" cx="450.909" cy="189.579" fx="450.909" fy="189.579" r="21.167" gradientTransform="matrix(0 -.31253 -.56255 0 212.492 254.381)"><stop offset="0" stop-opacity=".314"/><stop offset=".222" stop-opacity=".275"/><stop offset="1" stop-opacity="0"/></radialGradient><radialGradient id="c" gradientUnits="userSpaceOnUse" cx="450.909" cy="189.579" fx="450.909" fy="189.579" r="21.167" gradientTransform="matrix(0 .31253 .56255 0 -84.818 -30.11)"><stop offset="0" stop-opacity=".314"/><stop offset=".222" stop-opacity=".275"/><stop offset="1" stop-opacity="0"/></radialGradient><radialGradient id="d" gradientUnits="userSpaceOnUse" cx="450.909" cy="189.579" fx="450.909" fy="189.579" r="21.167" gradientTransform="matrix(0 -.31253 .56255 0 -84.818 254.381)"><stop offset="0" stop-opacity=".314"/><stop offset=".222" stop-opacity=".275"/><stop offset="1" stop-opacity="0"/></radialGradient><radialGradient id="e" gradientUnits="userSpaceOnUse" cx="450.909" cy="189.579" fx="450.909" fy="189.579" r="21.167" gradientTransform="matrix(0 .31253 -.56255 0 212.492 -30.11)"><stop offset="0" stop-opacity=".314"/><stop offset=".222" stop-opacity=".275"/><stop offset="1" stop-opacity="0"/></radialGradient><linearGradient id="f" gradientUnits="userSpaceOnUse" x1="254" y1="233.5" x2="254" y2="-168.667" gradientTransform="matrix(.25002 0 0 .25002 0 53.755)"><stop offset="0" stop-color="#f44336"/><stop offset="1" stop-color="#ef5350"/></linearGradient><linearGradient id="g" gradientUnits="userSpaceOnUse" x1="349.25" y1="191.167" x2="349.25" y2="-105.167" gradientTransform="matrix(3.77953 0 0 3.77953 -320 732.598)"><stop offset="0" stop-color="#e0e0e0"/><stop offset="1" stop-color="#eee"/></linearGradient><linearGradient id="h" gradientUnits="userSpaceOnUse" x1="1040" y1="1535.118" x2="1040" y2="415.118" gradientTransform="matrix(.26458 0 0 .26458 -84.667 -236.167)"><stop offset="0" stop-color="#e0e0e0"/><stop offset="1" stop-color="#eee"/></linearGradient></defs><path d="M20.508 112.137h86.66v5.293h-86.66zm0 0" fill="url(#a)"/><path d="M107.168 112.137h10.582v-5.293h-10.582zm0 0" fill="url(#b)"/><path d="M20.508 112.137H9.922v5.293h10.586zm0 0" fill="url(#c)"/><path d="M20.508 112.137H9.922v-5.293h10.586zm0 0" fill="url(#d)"/><path d="M107.168 112.137h10.582v5.293h-10.582zm0 0" fill="url(#e)"/><path d="M14.555 11.586c-.07 0-.137 0-.207.004a4.012 4.012 0 0 0-1.344.305 4.002 4.002 0 0 0-1.516 1.132c-.039.047-.078.098-.117.149a3.464 3.464 0 0 0-.215.316 4.207 4.207 0 0 0-.261.512l-.07.184c-.024.058-.044.12-.063.183-.02.063-.035.125-.055.188a4.318 4.318 0 0 0-.102.59c-.015.132-.02.269-.02.406v92.613a3.96 3.96 0 0 0 3.97 3.969h97.902c2.2 0 3.973-1.77 3.973-3.969V15.555a3.943 3.943 0 0 0-.907-2.528 3.61 3.61 0 0 0-.54-.54 4.002 4.002 0 0 0-.977-.594 4.118 4.118 0 0 0-.94-.264 4.525 4.525 0 0 0-.402-.04c-.07-.003-.137-.003-.207-.003zm0 0" fill="url(#f)"/><path d="M14.555 11.586a3.96 3.96 0 0 0-3.97 3.969v.66a3.96 3.96 0 0 1 3.97-3.969h97.902c2.2 0 3.973 1.77 3.973 3.969v-.66c0-2.2-1.774-3.97-3.973-3.97zm0 0" fill="#fff" fill-opacity=".392"/><path d="M14.555 112.133a3.96 3.96 0 0 1-3.97-3.969v-.66a3.96 3.96 0 0 0 3.97 3.969h97.902c2.2 0 3.973-1.77 3.973-3.97v.661c0 2.2-1.774 3.969-3.973 3.969zm0 0" fill="#030303" fill-opacity=".235"/><path d="M14.555 11.21a4.34 4.34 0 0 0-4.344 4.345v92.613a4.342 4.342 0 0 0 4.344 4.344h97.902a4.342 4.342 0 0 0 4.344-4.344V15.555a4.34 4.34 0 0 0-4.344-4.344zm0 .75h97.902c2 0 3.594 1.595 3.594 3.595v92.613a3.577 3.577 0 0 1-3.594 3.594H14.555c-2 0-3.594-1.598-3.594-3.594V15.555c0-2 1.594-3.594 3.594-3.594zm0 0" fill="#212121"/><path d="M600.002 335.106c-22.144 0-39.977 17.833-39.977 40.035v1039.98c0 22.143 17.833 39.976 39.977 39.976h80.012c22.143 0 39.976-17.833 39.976-39.976v-262.534l289.46 289.401c15.649 15.648 40.863 15.648 56.57 0l56.57-56.569c13.758-13.818 15.412-35.075 4.842-50.605l-199.647-199.706a49.699 49.699 0 0 1-4.251-3.66l-56.57-56.57c-7.912-7.913-11.81-18.247-11.75-28.58-.06-10.334 3.838-20.668 11.75-28.58l56.57-56.57a41.678 41.678 0 0 1 4.251-3.72l199.647-199.646c10.57-15.59 8.916-36.788-4.842-50.605l-56.57-56.57c-7.853-7.853-18.069-11.75-28.284-11.75-10.275 0-20.49 3.897-28.285 11.75L719.99 940.01V375.14c0-22.202-17.834-40.035-39.977-40.035zm0 0" transform="scale(.06615)" fill="url(#g)" stroke-width="11.339" stroke-linecap="round" stroke-linejoin="round" stroke="#424242"/><path d="M351.295-45.97a10.515 10.515 0 0 0-7.484 3.11l-81.195 81.18c-.391.296-.766.624-1.125.984L246.523 54.27a10.563 10.563 0 0 0-3.109 7.562 10.563 10.563 0 0 0 3.11 7.562l14.967 14.967c.359.344.734.672 1.125.969l81.195 81.195c4.14 4.14 10.811 4.14 14.967 0l14.968-14.967a10.57 10.57 0 0 0 0-14.968L321.954 84.8a6.438 6.438 0 0 1-.485-.437l-14.967-14.967a10.563 10.563 0 0 1-3.11-7.562 10.563 10.563 0 0 1 3.11-7.562l14.967-14.967c.157-.156.313-.297.485-.438l51.792-51.792c4.14-4.155 4.14-10.827 0-14.967L358.778-42.86a10.542 10.542 0 0 0-7.483-3.11zm0 0" transform="matrix(.25002 0 0 .25002 0 53.755)" fill="url(#h)" stroke-width="3" stroke-linecap="round" stroke-linejoin="round" stroke="#424242"/></svg>
